X:58
T:President Garfield's
R:Reel
S:Bernie Waugh
M:4/4
L:1/8
K:Bb
|:FG|\
"Bb"BFDF BFDF|~BABc dcde|"F"fcAc fcAc|~f=efg f_edc|
"Bb"BFDF BFDF|~BABc dcde|"F"fgag fedc|"Bb"B2d2B2:|
|:ba|\
"Cm"geBG "Eb"EGBg|"Bb"fdBF DFBf|"F"eAgf eAgf|"Bb"dBgf dBba|
"Cm"geBG "Eb"EGBg|"Bb"fdBF "Gm"DFBf|"F"=efag f_edc|"Bb"B2d2B2:|

